X: 10373
T: Donal O'Connor's
R: slide
M: 12/8
K: Gmajor
|:G2 A|B2 B cBA G2 E D2 D|EFG A2 B c3 cBA|
B3 cBA G2 E D2 D|EFG AFD G3:|
|:GFE|D2 B BAB d2 B BAB|D2 F A2 B c2 A ABG|
D2 B BAB d2 B BAG|A2 A DFA G3:|

